mobile/24/svg/delete-24.svg

<svg width="24" height="24" viewBox="0 0 24 24" fill="none" xmlns="http://www.w3.org/2000/svg">
<path d="M10.75 10V18H9V10H10.75Z" fill="black"/>
<path d="M15 10V18H13.25V10H15Z" fill="black"/>
<path fill-rule="evenodd" clip-rule="evenodd" d="M10.5 2C9.11975 2 8 3.11975 8 4.5V6H3.25V7.75H4.5V19.5C4.5 20.8802 5.61975 22 7 22H17C18.3802 22 19.5 20.8802 19.5 19.5V7.75H20.75V6H16V4.5C16 3.11975 14.8802 2 13.5 2H10.5ZM14.25 6V4.5C14.25 4.08625 13.9138 3.75 13.5 3.75H10.5C10.0862 3.75 9.75 4.08625 9.75 4.5V6H14.25ZM17.75 7.75H6.25V19.5C6.25 19.9137 6.58625 20.25 7 20.25H17C17.4138 20.25 17.75 19.9137 17.75 19.5V7.75Z" fill="black"/>
</svg>

<svg width="24" height="24" fill="none" xmlns="http://www.w3.org/2000/svg"><path d="M10.75 10v8H9v-8h1.75zM15 10v8h-1.75v-8H15z" fill="#000"/><path fill-rule="evenodd" clip-rule="evenodd" d="M10.5 2A2.5 2.5 0 0 0 8 4.5V6H3.25v1.75H4.5V19.5A2.5 2.5 0 0 0 7 22h10a2.5 2.5 0 0 0 2.5-2.5V7.75h1.25V6H16V4.5A2.5 2.5 0 0 0 13.5 2h-3zm3.75 4V4.5a.75.75 0 0 0-.75-.75h-3a.75.75 0 0 0-.75.75V6h4.5zm3.5 1.75H6.25V19.5c0 .414.336.75.75.75h10a.75.75 0 0 0 .75-.75V7.75z" fill="#000"/></svg>
